svgs/duotone/transformer-bolt.svg

<svg xmlns="http://www.w3.org/2000/svg" viewBox="0 0 384 512"><!--! Font Awesome Pro 6.3.0 by @fontawesome - https://fontawesome.com License - https://fontawesome.com/license (Commercial License) Copyright 2023 Fonticons, Inc. --><defs><style>.fa-secondary{opacity:.4}</style></defs><path class="fa-primary" d="M384 208v-32C384 167.2 376.8 160 368 160h-352C7.164 160 0 167.2 0 176v32C0 216.8 7.164 224 16 224v224C7.164 448 0 455.2 0 464v32C0 504.8 7.164 512 16 512h352c8.836 0 16-7.164 16-16v-32c0-8.838-7.164-16-16-16V224C376.8 224 384 216.8 384 208zM271.2 344.5l-112 100C156.6 446.8 153.3 448 149.1 448c-2.871 0-5.769-.8887-8.232-2.68c-5.277-3.842-7.219-10.83-4.648-16.83L170.8 352H121.1c-5.824 0-11.05-3.609-13.1-9.078c-2.051-5.455-.5195-11.62 3.885-15.46l112-99.99c4.895-4.307 12.11-4.648 17.45-.7793c5.277 3.842 7.219 10.83 4.648 16.83L213.2 320h48.76c5.824 0 11.05 3.609 13.1 9.078C277.2 334.5 275.6 340.7 271.2 344.5z"/><path class="fa-secondary" d="M224 64h96c8.836 0 16-7.164 16-16C336 39.16 328.8 32 320 32h-24V24C296 10.74 285.3 0 272 0s-24 10.74-24 24V32H224c-8.836 0-16 7.162-16 16C208 56.84 215.2 64 224 64zM320 96h-96c-8.836 0-16 7.162-16 16C208 120.8 215.2 128 224 128h96c8.836 0 16-7.164 16-16C336 103.2 328.8 96 320 96zM262 320h-48.76l33.64-76.48c2.57-6.002 .6289-12.99-4.648-16.83c-5.334-3.869-12.55-3.527-17.45 .7793l-112 99.99c-4.404 3.842-5.936 10.01-3.885 15.46C110.1 348.4 116.2 352 121.1 352h48.76l-33.64 76.49c-2.57 6.002-.6289 12.99 4.648 16.83C144.2 447.1 147.1 448 149.1 448c3.309 0 6.59-1.162 9.215-3.459l112-100c4.404-3.842 5.936-10.01 3.885-15.46C273 323.6 267.8 320 262 320zM64 64h96c8.836 0 16-7.164 16-16C176 39.16 168.8 32 160 32H136V24C136 10.74 125.3 0 112 0S88 10.74 88 24V32H64C55.16 32 48 39.16 48 48C48 56.84 55.16 64 64 64zM176 112C176 103.2 168.8 96 160 96H64C55.16 96 48 103.2 48 112C48 120.8 55.16 128 64 128h96C168.8 128 176 120.8 176 112z"/></svg>

<svg xmlns="http://www.w3.org/2000/svg" viewBox="0 0 384 512"><!-- Font Awesome Pro 6.0.0-alpha2 by @fontawesome - https://fontawesome.com License - https://fontawesome.com/license (Commercial License) --><defs><style>.fa-secondary{opacity:.4}</style></defs><path d="M224 64H320C328.836 64 336 56.836 336 48C336 39.162 328.836 32 320 32H296V24C296 10.742 285.254 0 272 0S248 10.742 248 24V32H224C215.164 32 208 39.162 208 48C208 56.836 215.164 64 224 64ZM320 96H224C215.164 96 208 103.162 208 112C208 120.836 215.164 128 224 128H320C328.836 128 336 120.836 336 112C336 103.162 328.836 96 320 96ZM262.002 320H213.242L246.881 243.52C249.451 237.518 247.51 230.531 242.232 226.689C236.898 222.82 229.68 223.162 224.785 227.469L112.783 327.459C108.379 331.301 106.848 337.467 108.898 342.922C110.951 348.391 116.174 352 121.998 352H170.758L137.119 428.49C134.549 434.492 136.49 441.479 141.768 445.32C144.23 447.111 147.129 448 150 448C153.309 448 156.59 446.838 159.215 444.541L271.217 344.541C275.621 340.699 277.152 334.533 275.102 329.078C273.049 323.609 267.826 320 262.002 320ZM64 64H160C168.836 64 176 56.836 176 48C176 39.162 168.836 32 160 32H136V24C136 10.742 125.254 0 112 0S88 10.742 88 24V32H64C55.164 32 48 39.162 48 48C48 56.836 55.164 64 64 64ZM176 112C176 103.162 168.836 96 160 96H64C55.164 96 48 103.162 48 112C48 120.836 55.164 128 64 128H160C168.836 128 176 120.836 176 112Z" class="fa-secondary"/><path d="M384 208V176C384 167.162 376.836 160 368 160H16C7.164 160 0 167.162 0 176V208C0 216.836 7.164 224 16 224V448C7.164 448 0 455.162 0 464V496C0 504.836 7.164 512 16 512H368C376.836 512 384 504.836 384 496V464C384 455.162 376.836 448 368 448V224C376.836 224 384 216.836 384 208ZM271.217 344.541L159.215 444.541C156.59 446.838 153.309 448 150 448C147.129 448 144.23 447.111 141.768 445.32C136.49 441.479 134.549 434.492 137.119 428.49L170.758 352H121.998C116.174 352 110.951 348.391 108.898 342.922C106.848 337.467 108.379 331.301 112.783 327.459L224.785 227.469C229.68 223.162 236.898 222.82 242.232 226.689C247.51 230.531 249.451 237.518 246.881 243.52L213.242 320H262.002C267.826 320 273.049 323.609 275.102 329.078C277.152 334.533 275.621 340.699 271.217 344.541Z" class="fa-primary"/></svg>
